X:1
T:Leken hass Krestaffer Troeen (R\orospols)
R:R\orospols
Z:Brekken Spellmannslag, StorBrekkingen, Track 20
Z:(also Rorostraktom #121)
M:3/4
L:1/8
K:D
|:"D"f2 (3fef g>f | "A"e2 (3ede f2 \
| "D"(3ABc d2 e>f | "A"d2 (3cBc e>e \
| "D"f2 (3fef g>f | "A"e2 (3ede f2 \
| "D"(3ABc d2 e>f | "A"d<c "D"d4 :|
|:"D"df d2 f>a | "G"a<b g2 f>d \
| "A"e>f g<e a>g | "D"f>e d<c ~BA \
| "D"d2 f<d f>a | "G"a<b g2 f>d \
| "A"e>f g<f d>f | "A"(3ece "D"d4 :|
